!!!!SEGMENT: pl-sa--551-a-ix-31--011_krogulski-jozef-wladyslaw--anglez.krn
!!!cenid: 18xx:510
!!!COM: Krogulski, Józef Władysław
!!!COM-rismID: pe30001797
!!!CDT: 1815/10/04-1842/01/09
!!!CNT: Polish
!!!OTL: Anglez
!!!PDT:
!!!AGN: Secular; Anglaise
!!!YEC: Copyright 2022 Narodowy Instytut Fryderyka Chopina (https://polishscores.org)
!!!YEM: License CC-BY-4.0 (https://creativecommons.org/licenses/by/4.0)
!!!SMS-siglum: PL-SA
!!!SMS-shelfmark: 551/A IX 31
!!!SMS-shelfwork: 011 W
!!!SMS-variant:
!!!SMS-altvar:
!!!NIFC-rismSourceID: 1001069477
!!!NIFC-rismChildID: 1001069477
!!!NIFC-islandoraID: none
!!!URL-pdf-islandora:
!!!URL-scan: https://bc.bdsandomierz.pl/dlibra/publication/1307/edition/1275/content @EN{Scan in the Sandomierz Diocese Digital Library} @PL{Skany w portalu Cyfrowa Biblioteka Diecezjalna w Sandomierzu}
!!!IIIF:
!!!ONB-nifc: Str. 12, s. 1-2
!!!AIN: 1 piano
!!!key: C
**kern	**kern	**dynam
*part1	*part1	*
*staff2	*staff1	*
*Ipiano	*Ipiano	*
*I"Piano	*I"Piano	*
*I'pf	*pf	*
*ICklav	*ICklav	*
*mI"Pianoforte	*mI"Pianoforte	*
*clefG2	*clefG2	*
*k[]	*k[]	*
*C:	*C:	*
*M2/4	*M2/4	*
=1	=1	=1
!	!LO:TX:i:a:t=Anglez p. JK.:mod=	!
!	!LO:TX:a:t=P:problem=utwór nie zaczyna się od początku systemu. Brak klucza w prawej ręce	!
!	!LO:TUP:a:problem=klamra łukowa	!
4g 4e 4c/	12cc\L	p
.	12ee\	.
.	12gg\J	.
!	!LO:MO:mod=*null:null	!
*	*Xtuplet	*
!LO:SIC:o=4g 4e 4c/|	!	!
4g 4e 4c/	12ee\L	.
.	12gg\	.
.	12ccc\J	.
=2	=2	=2
4a 4f 4c/	8aa\L	.
.	8ff\J	.
4g 4e 4c/	16aa\LL	.
.	16gg\J	.
.	8gg\J	.
=3	=3	=3
4g 4e 4c/	12cc\L	.
.	12ee\	.
.	12gg\J	.
4g 4e 4c/	12ee\L	.
.	12gg\	.
!	!LO:SIC:t=lub 12aa	!
.	12ccc\J	.
!!LO:LB:g=origina
=4	=4	=4
!LO:TX:a:t=P:problem=w źródle klucz basowy na początku nowego systemu zamiast wiolinowego	!	!
.	8qqgg/	.
4f 4d 4G/	16ff\LL	.
.	16ee\	.
.	16ff\	.
.	16dd\JJ	.
8e 8c/	8cc\	.
8r	8r	.
=5||	=5||	=5||
!	!	!LO:DY:b:rj
4f 4d 4G/	12g\L	f
.	12b\	.
.	12dd\J	.
4f 4d 4G/	12b\L	.
.	12dd\	.
.	12ff\J	.
=6	=6	=6
4e 4c 4G/	12cc\L	.
.	12ee\	.
.	12gg\J	.
4e 4c 4A/	12ee\L	.
.	12gg\	.
.	12ccc\J	.
=7	=7	=7
4f 4d 4G/	12gg\L	.
.	12bb\	.
.	12ddd\J	.
4f 4d 4G/	12bb\L	.
.	12ddd\	.
.	12fff\J	.
=8	=8	=8
8eL 8c 8G/	16eee\LL	.
.	16fff\	.
8fJ 8d 8G/	16ddd\	.
.	16eee\JJ	.
8e 8c 8G/	8ccc\	.
8r	8r	.
==	==	==
*-	*-	*-
!!!system-decoration: {(s1,s2)}
!!!RDF**kern: > = above
!!!RDF**kern: < = below
!!!RDF**kern: | = vertical stroke
!!!filter-modern: sic -sq | shed -e "s/TX(.*):t=P:/tx$1:t=P:/LG" |  shed -k -e "s/LO:N:vis/LO:n:vis:/L" | shed -e "s/^(\d+[\/\\]right)/$1yy/I; s/^(\d+[\/\\]left)/$1yy/I" | shed -e "s/:rj/:RJ/L" | shed -e "s/LO:DY:(a|b|rj)/LO:dy:$1/L" | autostem -r | tie -s | shed -k -e "s/[<>]//g" | shed -e "s/^(X?)rep$/$1REP/I" | modori -m
!!!ENC: Marcin Jachim
!!!END: 2020-06-17
!!!EED: Mateusz Mrugas
!!!EEV: 2020-12-05
